packages/landing-ui/public/step-success.svg

<svg width="76" height="76" viewBox="0 0 76 76" fill="none" xmlns="http://www.w3.org/2000/svg">
<g clip-path="url(#clip0)">
<path d="M0.861294 70.9496L1.84648 73.1672L37.1989 58.5085L43.3578 59.2477L45.5748 66.0225L42.6186 68.8559C41.5101 69.8411 41.1408 71.4422 41.7567 72.9206L42.9885 76L63.4356 67.9934L62.3271 65.0373C61.8345 63.5589 60.4794 62.697 58.8784 62.697H54.8131L52.5961 57.4L58.0159 54.6904C59.7402 53.8279 60.4794 51.857 59.8635 50.1326L52.8427 31.2866C52.1036 29.3156 50.0093 28.4531 48.0383 29.069C48.0383 29.069 47.9156 29.069 47.9156 29.1923L42.7419 31.4093L42.0027 29.5616L44.8362 26.2361C46.8065 24.0186 48.0383 21.309 48.4082 18.3528L51.9803 14.0416C54.3205 11.3314 53.8279 7.26681 51.1178 4.92594C50.6252 4.55664 50.1326 4.18735 49.64 3.94075C48.2849 3.32486 46.9298 3.20156 45.4521 3.57146L45.0822 2.46237C44.4663 0.492003 42.2493 -0.493784 40.4016 0.245406L14.4109 9.60707C12.4399 10.3463 11.4547 12.4399 12.1939 14.2876V14.4109L12.8098 16.012C9.60707 17.4904 8.12869 21.1857 9.23717 24.3885C10.0997 26.852 12.3166 28.5764 14.9035 28.9457L20.6931 29.5616C23.0334 31.2866 25.8662 32.395 28.6997 32.641L32.7643 33.0109L33.5035 34.8586C32.641 35.3512 32.0251 36.2137 31.7792 37.3222L30.9167 41.5101L0.861294 53.7046L1.72378 56.0449L18.9687 49.1474L23.1567 61.7112L0.861294 70.9496ZM59.8635 65.7765L60.1101 66.5151L44.343 72.7973L43.9737 72.0581C43.8504 71.5655 43.9737 71.0729 44.2203 70.7036L48.4082 66.7617L53.7046 65.0373H58.6318C59.2477 65.0373 59.6175 65.2833 59.8635 65.7765ZM52.1036 62.8197L47.669 64.2981L46.0679 59.6175C46.8065 59.7402 47.4224 59.6175 48.0383 59.2477L50.1326 58.2625L52.1036 62.8197ZM48.7775 31.04C49.3934 30.7934 50.1326 31.04 50.3792 31.6559L51.3644 34.2427L45.3288 36.2137L46.0679 38.554L52.1036 36.583L53.5813 40.5249L47.7923 42.4953L48.5315 44.8362L54.4438 42.8652L55.9222 46.8065L50.2559 48.6542L50.9951 50.9951L56.7841 49.0241L57.4 50.6252C57.6466 51.2411 57.4 51.857 56.7841 52.1036L47.0531 56.9074C46.8065 57.0307 46.5605 57.0307 46.3139 57.0307L37.9381 56.0449L33.3802 42.3726L34.2427 37.8148C34.366 37.4455 34.612 37.0756 34.9819 36.9523L48.7775 31.04ZM48.6542 6.15772C50.6252 7.02021 51.611 9.36047 50.7485 11.4547C50.6252 11.824 50.3792 12.0706 50.1326 12.4399L48.6542 14.2876C48.5315 13.0558 48.2849 11.9473 47.9156 10.7156L46.3139 5.91173C47.1764 5.78843 47.9156 5.91172 48.6542 6.15772ZM11.7007 23.7726C10.9621 21.6783 11.824 19.4613 13.795 18.4755L15.5194 22.6641C16.1353 24.1419 16.9978 25.6202 17.9829 26.852L15.3961 26.6054C13.6717 26.4821 12.1939 25.3736 11.7007 23.7726ZM29.1923 30.3008C24.1419 29.8082 19.7073 26.6054 17.8596 21.8016L14.6575 13.6717C14.4109 13.0558 14.6575 12.3166 15.2734 12.0706L41.2635 2.70897C41.6334 2.58567 41.8794 2.58567 42.2493 2.70897C42.4953 2.83227 42.7419 3.07826 42.8652 3.44816L45.5748 11.578C47.0531 16.1353 46.0679 21.0624 42.9885 24.6345L39.1698 29.069L40.2783 32.0252L35.8438 33.8728L34.612 30.7934L29.1923 30.3008ZM21.309 48.1616L24.1419 47.0531L27.2213 56.4148L29.5616 55.6756L26.3594 46.0679L31.2866 44.097L35.4745 56.5381L25.4969 60.726L21.309 48.1616Z" fill="#687C94"/>
<path d="M61.7112 21.5549V22.7867H64.1748V21.5549C64.1748 18.1062 66.8849 15.396 70.3337 15.396V12.9324C66.8849 12.9324 64.1748 10.2229 64.1748 6.77353V5.54175H61.7112V6.77353C61.7112 10.2229 59.0016 12.9324 55.5523 12.9324V15.396C59.0016 15.396 61.7112 18.1062 61.7112 21.5549ZM62.943 11.2081C63.6822 12.4398 64.6673 13.4256 65.8991 14.1642C64.6673 14.9034 63.6822 15.8892 62.943 17.121C62.2038 15.8892 61.2186 14.9034 59.9868 14.1642C61.2186 13.4256 62.2038 12.4398 62.943 11.2081Z" fill="#F1C40F"/>
<path d="M7.51279 46.1907V47.4224H9.97635V46.1907C9.97635 42.7419 12.6865 40.0317 16.1353 40.0317V37.5682C12.6865 37.5682 9.97635 34.8586 9.97635 31.4093V30.1775H7.51279V31.4093C7.51279 34.8586 4.80323 37.5682 1.35388 37.5682V40.0317C4.80323 40.0317 7.51279 42.7419 7.51279 46.1907ZM8.74457 35.8438C9.48376 37.0756 10.4689 38.0614 11.7007 38.8C10.4689 39.5392 9.48376 40.5249 8.74457 41.7567C8.00538 40.5249 7.0202 39.5392 5.78841 38.8C7.0202 38.0614 8.00538 37.0756 8.74457 35.8438Z" fill="#F1C40F"/>
<path d="M69.1019 31.4093V30.1775H66.6383V31.4093C66.6383 34.8586 63.9288 37.5682 60.4794 37.5682V40.0317C63.9288 40.0317 66.6383 42.7419 66.6383 46.1907V47.4224H69.1019V46.1907C69.1019 42.7419 71.812 40.0317 75.2608 40.0317V37.5682C71.812 37.5682 69.1019 34.8586 69.1019 31.4093ZM67.8701 41.7567C67.1309 40.5249 66.1457 39.5392 64.9139 38.8C66.1457 38.0614 67.1309 37.0756 67.8701 35.8438C68.6093 37.0756 69.5945 38.0614 70.8263 38.8C69.5945 39.5392 68.6093 40.5249 67.8701 41.7567Z" fill="#F1C40F"/>
<path d="M37.4455 21.9249L39.1698 23.6493C45.9446 16.8745 39.6624 6.52761 39.2931 6.15771L37.1989 7.5128C37.3222 7.5128 42.8652 16.5052 37.4455 21.9249Z" fill="#F1C40F"/>
</g>
<defs>
<clipPath id="clip0">
<rect width="76" height="76" fill="white"/>
</clipPath>
</defs>
</svg>

<svg width="76" height="76" fill="none" xmlns="http://www.w3.org/2000/svg"><g clip-path="url(#clip0)"><path d="M.861 70.95l.985 2.217L37.2 58.508l6.159.74 2.217 6.774-2.956 2.834c-1.109.985-1.478 2.586-.862 4.065L42.989 76l20.447-8.007-1.109-2.956c-.492-1.478-1.848-2.34-3.449-2.34h-4.065L52.596 57.4l5.42-2.71a3.702 3.702 0 001.848-4.557l-7.021-18.846c-.74-1.971-2.834-2.834-4.805-2.218 0 0-.122 0-.122.123l-5.174 2.217-.74-1.847 2.834-3.326a14.496 14.496 0 003.572-7.883l3.572-4.311c2.34-2.71 1.848-6.775-.862-9.116-.493-.37-.985-.739-1.478-.985-1.355-.616-2.71-.74-4.188-.37l-.37-1.109C44.466.492 42.25-.494 40.402.245L14.41 9.607c-1.971.74-2.956 2.833-2.217 4.68v.124l.616 1.601c-3.203 1.478-4.681 5.174-3.573 8.377.863 2.463 3.08 4.187 5.666 4.557l5.79.616c2.34 1.725 5.173 2.833 8.007 3.079l4.064.37.74 1.848c-.863.492-1.479 1.355-1.725 2.463l-.862 4.188L.86 53.705l.863 2.34 17.245-6.898 4.188 12.564L.86 70.95zm59.002-5.174l.247.74-15.767 6.281-.37-.739c-.123-.493 0-.985.247-1.354l4.188-3.942 5.297-1.725h4.927c.616 0 .986.246 1.232.74zm-7.76-2.956l-4.434 1.478-1.601-4.68c.739.122 1.354 0 1.97-.37l2.095-.985 1.97 4.557zm-3.325-31.78c.615-.247 1.355 0 1.601.616l.985 2.587-6.035 1.97.739 2.341 6.036-1.971 1.477 3.942-5.789 1.97.74 2.341 5.912-1.97 1.478 3.94-5.666 1.848.74 2.341 5.788-1.97.616 1.6c.247.616 0 1.232-.616 1.479l-9.73 4.803c-.248.124-.494.124-.74.124l-8.376-.986-4.558-13.672.863-4.558c.123-.37.369-.74.739-.863l13.796-5.912zm-.124-24.882c1.971.862 2.957 3.202 2.094 5.297-.123.369-.369.616-.615.985l-1.479 1.848c-.123-1.232-.37-2.34-.738-3.572l-1.602-4.804c.862-.124 1.602 0 2.34.246zM11.701 23.773c-.739-2.095.123-4.312 2.094-5.297l1.724 4.188a17.848 17.848 0 002.464 4.188l-2.587-.247c-1.724-.123-3.202-1.231-3.695-2.832zM29.192 30.3c-5.05-.493-9.485-3.696-11.332-8.5l-3.202-8.13c-.247-.615 0-1.354.615-1.6l25.99-9.362c.37-.123.616-.123.986 0 .246.123.493.37.616.74l2.71 8.129c1.478 4.557.493 9.484-2.587 13.056L39.17 29.07l1.108 2.956-4.434 1.848-1.232-3.08-5.42-.492zM21.31 48.16l2.833-1.108 3.08 9.362 2.34-.74-3.203-9.607 4.928-1.971 4.188 12.441-9.978 4.188-4.188-12.564z" fill="#687C94"/><path d="M61.711 21.555v1.232h2.464v-1.232c0-3.449 2.71-6.159 6.159-6.159v-2.464c-3.45 0-6.16-2.71-6.16-6.158V5.542h-2.463v1.232c0 3.449-2.71 6.158-6.159 6.158v2.464c3.45 0 6.16 2.71 6.16 6.159zm1.232-10.347a8.489 8.489 0 002.956 2.956 8.495 8.495 0 00-2.956 2.957 8.495 8.495 0 00-2.956-2.957 8.49 8.49 0 002.956-2.956zM7.513 46.19v1.232h2.463v-1.231c0-3.45 2.71-6.16 6.16-6.16v-2.463c-3.45 0-6.16-2.71-6.16-6.159v-1.232H7.513v1.232c0 3.45-2.71 6.16-6.16 6.16v2.463c3.45 0 6.16 2.71 6.16 6.159zm1.232-10.346A8.488 8.488 0 0011.7 38.8a8.495 8.495 0 00-2.956 2.957A8.495 8.495 0 005.788 38.8a8.489 8.489 0 002.957-2.956zM69.102 31.41v-1.233h-2.464v1.232c0 3.45-2.71 6.16-6.159 6.16v2.463c3.45 0 6.16 2.71 6.16 6.159v1.231h2.463v-1.231c0-3.45 2.71-6.16 6.159-6.16v-2.463c-3.449 0-6.16-2.71-6.16-6.159zM67.87 41.756a8.495 8.495 0 00-2.956-2.957 8.489 8.489 0 002.956-2.956 8.489 8.489 0 002.956 2.956 8.495 8.495 0 00-2.956 2.957zM37.446 21.925l1.724 1.724c6.775-6.774.492-17.121.123-17.491L37.2 7.513c.123 0 5.666 8.992.247 14.412z" fill="#F1C40F"/></g><defs><clipPath id="clip0"><path fill="#fff" d="M0 0h76v76H0z"/></clipPath></defs></svg>
